X:1
T: Miss Coxe
C:Duncan McIntyre
R:Strathspey
Q: 128
K:Eb
M:4/4
L:1/16
|:Bc1/2d1/2|e3E C3E B,3E G,3E|B,3E AGFE DF3 F2Bc1/2d1/2|e3E C3E B,3E G,3E|D2EF B,3A GE3 E2Bc1/2d1/2|
e3E C3E B,3E G,3E|B,3E AGFE DF3 F2GA|B3G E2e2 c3A F3c|B3G F3A GE3 E2Bc1/2d1/2|
e3B e3g e3c BG3|A3F AGFE DF3 F3A|GAB2 E3e def2 B3a|gb3 f3a ge3 e3a|
g3e df3 e3c B3G|A3F B3E DF3 F2GA|G3E B,3_D C4 A,3c|B3G F3A GE3 E2:|
